X:1
T:Title
T:Lavender Moonlight
T:Composer Paige Wharton
C:Composer
L:1/8
Q:1/4=80
M:4/4
K:Bb
V:1 alto nm="Viola" snm="Vla."
V:1
"^Swing" B,4 F4 | E,2 G,2 D2 C,2 | E,F,G,A, .F.E.DTG, |!>(! A,6 B,A,!>)! | %4
!p!!<(! G,/B,/E/F/ D/G/B/A/!fff! D/B,/E/A,/ F/G/C/A,/!<)! | %5
!p! G,/!<(!B,/E/F/ D/G/B/A/!fff! D/B,/E/A,/ F/G/C/A,/!<)! | G,4- E4 | %7
"^Not Swing\n""_dim." FD/ z/ EB,/ z/ EA,/ z/ G,!ppp!F,/ z/ | %8
"^Swing"!p! F/!<(!A/G/c/ d/B/G/E/ B,/E/G/E/!mf! A/B/d/A/!<)! |!pp! d4 B,4 | F8 | E6 (G^F) | %12
!<(! D8!<)! |!mp! E,6 ED | B,2 D2 C2 A,2 | B,C FE/D/ B,G,E,B, |!<(! G6 F/E/D/C/!<)! | %17
!f! B,/D/G,/E/ C/A,/F/B,/ F,/C/A,/E,/ A,/E/G/D/ |"^No Swing" .C.B,.D.G, .F.C.Ac- | c2 B/A/G/F/ D4 | %20
"^Swing" E6 (CB,) | E,6 C2 | A,2 E2 C2 A2 | B,2 CD E2 CB, | D2 EG A2 FA, | %25
 C3 B, G,/F,/B,/C/ D/F/E | D4 A4 | ^F4 A,4 | FBGE CEA,B, | [D^F]8 | [A^c]4 CA,FD | %31
 G,2 D2 B, z E z | FCA,G CF,B,G, | C,6 FE | G,6 DG | A,6 EC | B,4 F4 | D4 A,4 | B,2 D2 G2 C2 | %39
 A,CGE F,A,CG, | A,G/B/ GE/A/ cB/A/ E/G/D/G,/ | D,F,/C/ F,D/A,/ CA,/G,/ A,/C/A,/G,/ | %42
 A,B,/D/ E,B,/G,/ A,B,/C/ E/D/A,/F,/ | DE/C/ FD/A,/ E,D/C/ A/D/G,/C/ | %44
 AE/B,/ cE/A/ B,G/E/ B,/E/A,/D/ | G,4 A,/C/F/A/ EB, | %46
 (F/E/D/C/ B,/A,/G,/F,/ G,/A,/B,/C/ D/E/F/G/) | [Ac]6 G/F/E/D/ | [CE]6 B,/D/F/A/ | %49
 F/E/D/C/ G,/B,/A,/D/ F,/B,/A,/E/ G/B/F/c/ | D/F/C/G,/ C/G/B,/F,/ E,/A,/E/C/ cA | %51
 FDB,G, F,/G,/A,/B,/ C/D/E/F/ | [FA]6 EB, | G,/A,/B,/C/ GE G,DB,G | G,CED GBFA | %55
!>(! cBAG FEDC!>)! |!p! [B,D]6!fff! GF |!p! [B,D]6!fff! GF |!ff![Q:1/2=80] [G,B,]3 z z2 z2 | %59
!ff! [G,B,]3 z z2 z2 |!ff!!>(! !fermata![G,B,-]3 [G,B,-]3 [G,B,]2!>)! |] %61

